X:500
%%etbk:tnset id:248,pos:2,rep:3x,ant:
%%etbk:wsite http://thesession.org/tunes/1754
%%etbk:wsite http://www.trad.katesplacedoolin.com/tunes/jollytinker.html
%%etbk:video src:ytube,cde:MO7vKUo6YFY,desc:first tune
%%etbk:pldat 2014-04-27T13:47,2014-03-09T16:47,2014-02-14T15:39,2014-02-08T15:26,2013-10-21T19:04,2013-10-20T14:51,2013-10-03T19:13,2013-10-02T15:07,2013-09-29T16:12,2013-09-26T14:23,2013-09-17T10:55,2013-09-16T15:10,2013-09-15T14:47
T:Jolly Tinker, The
Z: Piano Box Version by Martin Fleischmann
H: Created 2013-09-15 /  Last Modified 2014-04-27
R:reel
M:4/4
L:1/8
K:Ador
|:!1!A3!2!B !1!G3B| !1!A2!5!af !4!gedB|!1!A2A!2!B !1!GGG!2!B |1 !4!d!2!BGB d2!2!B!1!G:||2 dBGB d2Bd||
|:!2!edef !4!g2ef|!4!g2af ged!4!g|!2!ede!3!g !4!a2eg|!4!a2bg aged:|
!3!e!5!aag !3!edBd| !3!e!5!aag !3!e2Bd| !3!eaag efge|dBGB d2Bd|
!3!eaag !3!eaag| !3!eaag !3!e!4!gdg| !3!eaag !3!efge|dBGB d2Bd||
|:!3!edgd !3!edBd| !3!edgd e2Bd| !3!edef g2ge |1 dBGB d2Bd:|2 dBGB dgfg||
!3!e~A3 !3!edBd| !3!edef g2fg| !3!e~A3 !3!efge|dBGB d2Bd|
!3!e~A3 !3!edBd| !3!edef g2fg| !3!eaag !3!efge|!2!d!1!BBB !4!d2!2!B!1!G||


